packages/components/src/components/icon/common/ic-document-number-verification-default.svg

<svg width="20" height="20" viewBox="0 0 20 20" fill="none" xmlns="http://www.w3.org/2000/svg">
<path fill-rule="evenodd" clip-rule="evenodd" d="M2.5 7C1.67157 7 1 7.67157 1 8.5V15.5C1 16.3284 1.67157 17 2.5 17H13.5C14.3284 17 15 16.3284 15 15.5V8.5C15 7.67157 14.3284 7 13.5 7H2.5ZM0 8.5C0 7.11929 1.11929 6 2.5 6H13.5C14.8807 6 16 7.11929 16 8.5V15.5C16 16.8807 14.8807 18 13.5 18H2.5C1.11929 18 0 16.8807 0 15.5V8.5Z" fill="var(--fill-color1)"/>
<path fill-rule="evenodd" clip-rule="evenodd" d="M2.5 9C2.77614 9 3 9.22386 3 9.5V14.5C3 14.7761 2.77614 15 2.5 15C2.22386 15 2 14.7761 2 14.5V9.5C2 9.22386 2.22386 9 2.5 9Z" fill="var(--fill-color1)"/>
<path fill-rule="evenodd" clip-rule="evenodd" d="M4.5 9C4.22386 9 4 9.22386 4 9.5V14.5C4 14.7761 4.22386 15 4.5 15L6.54328 14.999C6.56529 14.998 6.59468 14.9963 6.6304 14.9931C6.70167 14.9868 6.79923 14.9744 6.91448 14.9504C7.14336 14.9027 7.45248 14.8068 7.765 14.6115C8.42147 14.2012 9 13.4099 9 12C9 10.5901 8.42147 9.7988 7.765 9.3885C7.45248 9.19318 7.14336 9.09726 6.91448 9.04957C6.79923 9.02556 6.70167 9.01323 6.6304 9.00686C6.59468 9.00367 6.56529 9.00196 6.54328 9.00104C6.53226 9.00058 6.52306 9.00032 6.51582 9.00018L6.50641 9.00003L6.50282 9.00001L6.50132 9L4.5 9ZM6.50165 13.9998L6.49641 14H5V10H6.49641L6.50165 10.0002C6.50893 10.0005 6.52251 10.0012 6.54147 10.0029C6.57958 10.0063 6.63827 10.0135 6.71052 10.0286C6.85664 10.059 7.04752 10.1193 7.235 10.2365C7.57853 10.4512 8 10.9099 8 12C8 13.0901 7.57853 13.5488 7.235 13.7635C7.04752 13.8807 6.85664 13.941 6.71052 13.9714C6.63827 13.9865 6.57958 13.9937 6.54147 13.9971C6.52251 13.9988 6.50893 13.9995 6.50165 13.9998Z" fill="var(--fill-color1)"/>
<path fill-rule="evenodd" clip-rule="evenodd" d="M11.9903 9.59803C12.0444 9.32725 11.8688 9.06384 11.5981 9.00968C11.3273 8.95553 11.0639 9.13114 11.0097 9.40192L10.7901 10.5H10.5C10.2239 10.5 10 10.7238 10 11C10 11.2761 10.2239 11.5 10.5 11.5H10.5901L10.3901 12.5H10C9.72386 12.5 9.5 12.7238 9.5 13C9.5 13.2761 9.72386 13.5 10 13.5H10.1901L10.0097 14.4019C9.95555 14.6727 10.1312 14.9361 10.4019 14.9903C10.6727 15.0444 10.9361 14.8688 10.9903 14.598L11.2099 13.5H12.1901L12.0097 14.4019C11.9556 14.6727 12.1312 14.9361 12.4019 14.9903C12.6727 15.0444 12.9361 14.8688 12.9903 14.598L13.2099 13.5H13.5C13.7761 13.5 14 13.2761 14 13C14 12.7238 13.7761 12.5 13.5 12.5H13.4099L13.6099 11.5H14C14.2761 11.5 14.5 11.2761 14.5 11C14.5 10.7238 14.2761 10.5 14 10.5H13.8099L13.9903 9.59803C14.0444 9.32725 13.8688 9.06384 13.5981 9.00968C13.3273 8.95553 13.0639 9.13114 13.0097 9.40192L12.7901 10.5H11.8099L11.9903 9.59803ZM11.6099 11.5H12.5901L12.3901 12.5H11.4099L11.6099 11.5Z" fill="var(--fill-color1)"/>
</svg>

<svg xmlns="http://www.w3.org/2000/svg" width="20" height="20" fill="none"><path fill="var(--fill-color1)" fill-rule="evenodd" d="M2.5 7A1.5 1.5 0 0 0 1 8.5v7A1.5 1.5 0 0 0 2.5 17h11a1.5 1.5 0 0 0 1.5-1.5v-7A1.5 1.5 0 0 0 13.5 7h-11ZM0 8.5A2.5 2.5 0 0 1 2.5 6h11A2.5 2.5 0 0 1 16 8.5v7a2.5 2.5 0 0 1-2.5 2.5h-11A2.5 2.5 0 0 1 0 15.5v-7Z" clip-rule="evenodd"/><path fill="var(--fill-color1)" fill-rule="evenodd" d="M2.5 9a.5.5 0 0 1 .5.5v5a.5.5 0 0 1-1 0v-5a.5.5 0 0 1 .5-.5ZM4.5 9a.5.5 0 0 0-.5.5v5a.5.5 0 0 0 .5.5l2.043-.001.087-.006a2.622 2.622 0 0 0 1.135-.382C8.421 14.201 9 13.41 9 12c0-1.41-.579-2.201-1.235-2.611A2.621 2.621 0 0 0 6.515 9H4.5Zm2.002 5H5v-4h1.502l.04.003a1.62 1.62 0 0 1 .694.234c.343.214.764.673.764 1.763 0 1.09-.421 1.549-.765 1.764a1.62 1.62 0 0 1-.733.236ZM11.99 9.598a.5.5 0 0 0-.98-.196l-.22 1.098h-.29a.5.5 0 1 0 0 1h.09l-.2 1H10a.5.5 0 1 0 0 1h.19l-.18.902a.5.5 0 0 0 .98.196l.22-1.098h.98l-.18.902a.5.5 0 0 0 .98.196l.22-1.098h.29a.5.5 0 0 0 0-1h-.09l.2-1H14a.5.5 0 0 0 0-1h-.19l.18-.902a.5.5 0 0 0-.98-.196l-.22 1.098h-.98l.18-.902Zm-.38 1.902h.98l-.2 1h-.98l.2-1Z" clip-rule="evenodd"/></svg>
